public/library/overnight-text-light.svg

<svg width="146" height="27" viewBox="0 0 146 27" fill="none" xmlns="http://www.w3.org/2000/svg">
<path fill-rule="evenodd" clip-rule="evenodd" d="M21.1864 4.3379H5.50847V0.426208H21.1864C23.2926 0.426208 25 2.17753 25 4.3379L21.1865 4.33789L21.1864 4.3379ZM21.1865 5.64179H21.1864V22.1578V22.1578H21.1865V26.0695C23.2926 26.0695 25 24.3182 25 22.1578V6.07642H21.1865V5.64179ZM19.9153 22.1578V22.1578H19.4916V26.0695H3.81356C1.70739 26.0695 0 24.3182 0 22.1578H3.81356H19.9153ZM3.81356 0.426208V4.3379V20.4193H0V4.3379C0 2.17753 1.70739 0.426208 3.81356 0.426208Z" fill="#FFFFFF"/>
<path fill-rule="evenodd" clip-rule="evenodd" d="M12.1404 8.24945C11.7538 8.24945 11.4404 8.56285 11.4404 8.94945V11.7265L8.75029 11.7265C8.36369 11.7265 8.05029 12.0399 8.05029 12.4265L8.05029 13.6343C8.05029 14.0209 8.36369 14.3343 8.75029 14.3343H11.4404V17.1114C11.4404 17.498 11.7538 17.8114 12.1404 17.8114H13.2827C13.6693 17.8114 13.9827 17.498 13.9827 17.1114V14.3343H16.6723C17.0589 14.3343 17.3723 14.0209 17.3723 13.6343V12.4265C17.3723 12.0399 17.0589 11.7265 16.6723 11.7265L13.9827 11.7265V8.94945C13.9827 8.56285 13.6693 8.24945 13.2827 8.24945H12.1404Z" fill="#FFFFFF"/>
<path d="M38.3271 18.7967C37.5471 18.7967 36.8221 18.6617 36.1521 18.3917C35.4821 18.1117 34.8921 17.7267 34.3821 17.2367C33.8821 16.7367 33.4871 16.1617 33.1971 15.5117C32.9171 14.8517 32.7771 14.1417 32.7771 13.3817C32.7771 12.6217 32.9171 11.9167 33.1971 11.2667C33.4871 10.6067 33.8821 10.0317 34.3821 9.54165C34.8921 9.04165 35.4821 8.65665 36.1521 8.38665C36.8221 8.10665 37.5471 7.96665 38.3271 7.96665C39.1071 7.96665 39.8321 8.10665 40.5021 8.38665C41.1821 8.65665 41.7721 9.04165 42.2721 9.54165C42.7821 10.0317 43.1771 10.6067 43.4571 11.2667C43.7371 11.9167 43.8771 12.6217 43.8771 13.3817C43.8771 14.1417 43.7371 14.8517 43.4571 15.5117C43.1771 16.1617 42.7821 16.7367 42.2721 17.2367C41.7721 17.7267 41.1821 18.1117 40.5021 18.3917C39.8321 18.6617 39.1071 18.7967 38.3271 18.7967ZM38.3271 16.8017C38.8071 16.8017 39.2471 16.7167 39.6471 16.5467C40.0471 16.3667 40.3971 16.1267 40.6971 15.8267C40.9971 15.5167 41.2321 15.1517 41.4021 14.7317C41.5721 14.3117 41.6571 13.8617 41.6571 13.3817C41.6571 12.8917 41.5721 12.4417 41.4021 12.0317C41.2321 11.6117 40.9971 11.2517 40.6971 10.9517C40.3971 10.6417 40.0471 10.4017 39.6471 10.2317C39.2471 10.0517 38.8071 9.96165 38.3271 9.96165C37.8571 9.96165 37.4221 10.0517 37.0221 10.2317C36.6221 10.4017 36.2721 10.6417 35.9721 10.9517C35.6721 11.2517 35.4371 11.6117 35.2671 12.0317C35.0971 12.4417 35.0121 12.8867 35.0121 13.3667C35.0121 13.8567 35.0971 14.3117 35.2671 14.7317C35.4371 15.1517 35.6721 15.5167 35.9721 15.8267C36.2721 16.1267 36.6221 16.3667 37.0221 16.5467C37.4221 16.7167 37.8571 16.8017 38.3271 16.8017ZM48.0533 18.6317L43.7933 8.13165H46.1483L49.3583 16.3967L52.6433 8.13165H54.8933L50.5733 18.6317H48.0533ZM55.7847 18.6317V8.13165H63.8547V10.0217H57.9597V12.4217H61.8447V14.2517H57.9597V16.7417H63.9147V18.6317H55.7847ZM65.4526 18.6317V8.13165H70.5826C71.2926 8.13165 71.9176 8.27165 72.4576 8.55165C73.0076 8.82165 73.4326 9.20165 73.7326 9.69165C74.0426 10.1817 74.1976 10.7467 74.1976 11.3867C74.1976 12.0567 74.0126 12.6467 73.6426 13.1567C73.2726 13.6667 72.7776 14.0467 72.1576 14.2967L74.4826 18.6317H72.0526L69.9976 14.6117H67.6276V18.6317H65.4526ZM67.6276 12.8267H70.3876C70.8776 12.8267 71.2676 12.6967 71.5576 12.4367C71.8576 12.1767 72.0076 11.8367 72.0076 11.4167C72.0076 10.9967 71.8576 10.6567 71.5576 10.3967C71.2676 10.1367 70.8776 10.0067 70.3876 10.0067H67.6276V12.8267ZM75.6333 18.6317V8.13165H77.7033L82.9233 14.9117V8.13165H84.9633V18.6317H83.0433L77.6883 11.6117V18.6317H75.6333ZM86.8686 18.6317V8.13165H89.0436V18.6317H86.8686ZM96.1156 18.7967C95.3356 18.7967 94.6106 18.6617 93.9406 18.3917C93.2706 18.1117 92.6806 17.7267 92.1706 17.2367C91.6606 16.7367 91.2606 16.1617 90.9706 15.5117C90.6906 14.8517 90.5506 14.1417 90.5506 13.3817C90.5506 12.6217 90.6906 11.9167 90.9706 11.2667C91.2606 10.6067 91.6556 10.0317 92.1556 9.54165C92.6556 9.04165 93.2406 8.65665 93.9106 8.38665C94.5906 8.10665 95.3156 7.96665 96.0856 7.96665C96.9556 7.96665 97.7756 8.14165 98.5456 8.49165C99.3156 8.83165 99.9506 9.31165 100.451 9.93165L98.9356 11.3267C98.5756 10.8767 98.1506 10.5367 97.6606 10.3067C97.1706 10.0767 96.6456 9.96165 96.0856 9.96165C95.6156 9.96165 95.1806 10.0517 94.7806 10.2317C94.3806 10.4017 94.0306 10.6417 93.7306 10.9517C93.4306 11.2517 93.1956 11.6117 93.0256 12.0317C92.8656 12.4417 92.7856 12.8917 92.7856 13.3817C92.7856 13.8717 92.8706 14.3267 93.0406 14.7467C93.2106 15.1667 93.4456 15.5317 93.7456 15.8417C94.0556 16.1417 94.4106 16.3817 94.8106 16.5617C95.2206 16.7317 95.6656 16.8167 96.1456 16.8167C96.6456 16.8167 97.0956 16.7267 97.4956 16.5467C97.8956 16.3567 98.2306 16.0967 98.5006 15.7667C98.7806 15.4267 98.9656 15.0467 99.0556 14.6267H95.9506V12.7367H101.381V13.3967C101.381 14.1767 101.246 14.8967 100.976 15.5567C100.716 16.2067 100.351 16.7767 99.8806 17.2667C99.4106 17.7467 98.8556 18.1217 98.2156 18.3917C97.5756 18.6617 96.8756 18.7967 96.1156 18.7967ZM102.865 18.6317V8.13165H105.04V12.3617H109.87V8.13165H112.045V18.6317H109.87V14.3267H105.04V18.6317H102.865ZM116.819 18.6317V10.0517H113.279V8.13165H122.519V10.0517H118.994V18.6317H116.819Z" fill="#FFFFFF"/>
</svg>

<svg xmlns="http://www.w3.org/2000/svg" width="146" height="27" fill="none" viewBox="0 0 146 27"><path fill="#fff" fill-rule="evenodd" d="M21.186 4.338H5.508V.426h15.678C23.293.426 25 2.178 25 4.338zm0 1.304V26.07c2.107 0 3.814-1.752 3.814-3.912V6.076h-3.814zm-1.27 16.516h-.424v3.912H3.814C1.707 26.07 0 24.318 0 22.158h19.915M3.813.426V20.42H0V4.338C0 2.178 1.707.426 3.814.426M12.14 8.25a.7.7 0 0 0-.7.7v2.777H8.75a.7.7 0 0 0-.7.7v1.207a.7.7 0 0 0 .7.7h2.69v2.777a.7.7 0 0 0 .7.7h1.143a.7.7 0 0 0 .7-.7v-2.777h2.69a.7.7 0 0 0 .7-.7v-1.207a.7.7 0 0 0-.7-.7h-2.69V8.949a.7.7 0 0 0-.7-.7z" clip-rule="evenodd"/><path fill="#fff" d="M38.327 18.797q-1.17 0-2.175-.405a5.7 5.7 0 0 1-1.77-1.155q-.75-.75-1.185-1.725-.42-.99-.42-2.13t.42-2.115q.435-.99 1.185-1.725.765-.75 1.77-1.155 1.005-.42 2.175-.42t2.175.42q1.02.405 1.77 1.155.765.735 1.185 1.725.42.975.42 2.115t-.42 2.13a5.4 5.4 0 0 1-1.185 1.725q-.75.735-1.77 1.155-1.005.405-2.175.405m0-1.995q.72 0 1.32-.255.6-.27 1.05-.72.45-.465.705-1.095t.255-1.35q0-.735-.255-1.35a3.2 3.2 0 0 0-.705-1.08q-.45-.465-1.05-.72-.6-.27-1.32-.27-.705 0-1.305.27-.6.255-1.05.72-.45.45-.705 1.08-.255.615-.255 1.335 0 .735.255 1.365t.705 1.095q.45.45 1.05.72.6.255 1.305.255m9.726 1.83-4.26-10.5h2.355l3.21 8.265 3.285-8.265h2.25l-4.32 10.5zm7.732 0v-10.5h8.07v1.89H57.96v2.4h3.885v1.83H57.96v2.49h5.955v1.89zm9.668 0v-10.5h5.13q1.065 0 1.875.42.825.405 1.275 1.14.465.735.465 1.695 0 1.005-.555 1.77t-1.485 1.14l2.325 4.335h-2.43l-2.055-4.02h-2.37v4.02zm2.175-5.805h2.76q.735 0 1.17-.39.45-.39.45-1.02t-.45-1.02q-.435-.39-1.17-.39h-2.76zm8.005 5.805v-10.5h2.07l5.22 6.78v-6.78h2.04v10.5h-1.92l-5.355-7.02v7.02zm11.236 0v-10.5h2.175v10.5zm9.247.165q-1.17 0-2.175-.405a5.7 5.7 0 0 1-1.77-1.155q-.765-.75-1.2-1.725-.42-.99-.42-2.13t.42-2.115q.435-.99 1.185-1.725.75-.75 1.755-1.155 1.02-.42 2.175-.42 1.305 0 2.46.525 1.155.51 1.905 1.44l-1.515 1.395a3.56 3.56 0 0 0-2.85-1.365q-.705 0-1.305.27-.6.255-1.05.72-.45.45-.705 1.08-.24.615-.24 1.35t.255 1.365.705 1.095q.465.45 1.065.72.615.255 1.335.255.75 0 1.35-.27.6-.285 1.005-.78.42-.51.555-1.14H95.95v-1.89h5.43v.66q0 1.17-.405 2.16-.39.975-1.095 1.71a5.05 5.05 0 0 1-1.665 1.125q-.96.405-2.1.405m6.749-.165v-10.5h2.175v4.23h4.83v-4.23h2.175v10.5h-2.175v-4.305h-4.83v4.305zm13.954 0v-8.58h-3.54v-1.92h9.24v1.92h-3.525v8.58z"/></svg>
